X: 38410
T: Star Of Munster, The
R: reel
M: 4/4
K: Gmajor
|:cBAc BAGB|AGEF GEDG|EAAG ABcd|e2ae gedB|
c2Ac BAGB|AGEF GEDG|EAAG ABcd|eBdB A2Bd:|
eaag ageg|agbg agef|g2ga gede|geae gfed|
eaag ageg|agbg agef|g2fg a2ga|bgaf gedg|
eaag ageg|agbg agef|g2ga gede|gdad bagf|
eaag ageg|agbg agef|g2fg a2ga|bgaf gedB|A3 A||

